src/assets/illustrator.svg

<svg width="65" height="64" viewBox="0 0 65 64" fill="none" xmlns="http://www.w3.org/2000/svg">
<path d="M32.5 62.208C15.86 62.208 2.29199 48.64 2.29199 32C2.29199 15.36 15.86 1.79199 32.5 1.79199C49.14 1.79199 62.708 15.36 62.708 32C62.708 48.64 49.14 62.208 32.5 62.208Z" fill="#111F4C"/>
<path d="M32.5 3.648C48.116 3.648 60.852 16.384 60.852 32C60.852 47.616 48.116 60.352 32.5 60.352C16.884 60.352 4.148 47.616 4.148 32C4.148 16.384 16.884 3.648 32.5 3.648ZM32.5 0C14.836 0 0.5 14.336 0.5 32C0.5 49.664 14.836 64 32.5 64C50.164 64 64.5 49.664 64.5 32C64.5 14.336 50.164 0 32.5 0Z" fill="#111F4C"/>
<path d="M41.204 26.0479C41.204 25.8559 41.268 25.7919 41.46 25.7919H45.108C45.3 25.7919 45.364 25.8559 45.364 26.0479V44.5439C45.364 44.7359 45.3 44.7999 45.108 44.7999H41.46C41.204 44.7999 41.14 44.6719 41.14 44.4799L41.204 26.0479ZM40.948 20.7359C40.948 19.2639 41.972 18.3679 43.316 18.3679C44.724 18.3679 45.684 19.3279 45.684 20.7359C45.684 22.2719 44.66 23.1039 43.252 23.1039C41.908 23.1039 40.948 22.2719 40.948 20.7359ZM30.388 33.7279C29.748 31.1039 28.212 25.4719 27.572 22.7199H27.508C26.996 25.4719 25.78 30.0799 24.82 33.7279H30.388ZM23.924 37.5679L22.068 44.6079C22.004 44.7999 21.94 44.8639 21.748 44.8639H18.292C18.036 44.8639 18.036 44.7999 18.036 44.5439L24.692 21.3119C24.82 20.8639 24.884 20.5439 24.948 19.3919C24.948 19.1999 25.012 19.1359 25.14 19.1359H30.068C30.26 19.1359 30.324 19.1999 30.324 19.3919L37.748 44.6719C37.812 44.8639 37.748 44.9919 37.556 44.9919H33.652C33.46 44.9919 33.332 44.9279 33.332 44.7999L31.412 37.7599H23.924V37.5679Z" fill="#4A4970"/>
</svg>

<svg xmlns="http://www.w3.org/2000/svg" width="65" height="64" fill="none" xmlns:v="https://vecta.io/nano"><g fill="#4a4970"><path d="M32.5 62.208C15.86 62.208 2.292 48.64 2.292 32S15.86 1.792 32.5 1.792 62.708 15.36 62.708 32 49.14 62.208 32.5 62.208z"/><path d="M32.5 3.648c15.616 0 28.352 12.736 28.352 28.352S48.116 60.352 32.5 60.352 4.148 47.616 4.148 32 16.884 3.648 32.5 3.648zM32.5 0C14.836 0 .5 14.336.5 32s14.336 32 32 32 32-14.336 32-32-14.336-32-32-32z"/></g><path d="M41.204 26.048c0-.192.064-.256.256-.256h3.648c.192 0 .256.064.256.256v18.496c0 .192-.064.256-.256.256H41.46c-.256 0-.32-.128-.32-.32l.064-18.432zm-.256-5.312c0-1.472 1.024-2.368 2.368-2.368 1.408 0 2.368.96 2.368 2.368 0 1.536-1.024 2.368-2.432 2.368-1.344 0-2.304-.832-2.304-2.368zm-10.56 12.992L27.572 22.72h-.064c-.512 2.752-1.728 7.36-2.688 11.008h5.568zm-6.464 3.84l-1.856 7.04c-.064.192-.128.256-.32.256h-3.456c-.256 0-.256-.064-.256-.32l6.656-23.232c.128-.448.192-.768.256-1.92 0-.192.064-.256.192-.256h4.928c.192 0 .256.064.256.256l7.424 25.28c.064.192 0 .32-.192.32h-3.904c-.192 0-.32-.064-.32-.192l-1.92-7.04h-7.488v-.192z" fill="#fff"/></svg>
